X:373
T:Elizabeth Clare
C:Chris Wood
M:3/4
L:1/8
K:F
C FG | A3 B AF | G2 A3 G | F2 D2 C2 | C3 C FG |
A2 c2 d2 | c2 A2 F2 | c2 B2 A2 | G3 C FG |
A3 B AF | G2 A3 G | F2 D2 C2 | C3 C FG |
A2 c2 d2 | c2 B2 A2 | G2 F2 E2 | F3 G Ac ||
d2 c3 A | B2 A3 B | c2 B2 A2 | G3 F GA |
B3 B cB | A3 A BA | G2 F2 D2 | C3 C FG |
A3 B AF | G2 A3 G | F2 D2 C2 | C3 C FG |
A2 c2 d2 | c2 B2 A2 | G2 F2 E2 | F3 ||
